src/assets/img/controller.svg

<svg width="50" height="50" viewBox="0 0 50 50" fill="none" xmlns="http://www.w3.org/2000/svg">
<g clip-path="url(#clip0)">
<g filter="url(#filter0_d)">
<path d="M49.9732 31.2912C49.8486 28.4265 49.3504 25.2504 48.6031 22.2611C47.8557 19.3963 46.9216 16.7184 45.8006 14.6632C41.4412 7.00315 36.7081 8.18641 31.0409 9.68106C29.2349 10.117 27.3043 10.6152 25.3114 10.8021H24.6886C22.6958 10.6152 20.7652 10.117 18.9591 9.68106C13.2919 8.24869 8.55884 7.00315 4.19944 14.7255C3.07846 16.7807 2.08202 19.4586 1.39697 22.3233C0.649646 25.3126 0.151429 28.4888 0.0268746 31.3535C-0.0976797 34.5297 0.213706 36.8339 0.898755 38.4531C1.5838 39.9478 2.58024 40.8819 3.88806 41.2556C5.07132 41.567 6.44142 41.4424 7.8738 40.8197C10.3026 39.8232 13.1051 37.7058 15.8453 35.1524C17.7759 33.2841 21.3879 32.35 25 32.35C28.6121 32.35 32.2242 33.2841 34.1548 35.1524C36.895 37.7058 39.6974 39.8232 42.1262 40.8197C43.5586 41.3801 44.9287 41.567 46.112 41.2556C47.3575 40.8819 48.4162 40.01 49.1013 38.3908C49.7863 36.8339 50.0977 34.5297 49.9732 31.2912ZM46.9838 37.519C46.6102 38.3908 46.112 38.8891 45.4892 39.0759C44.8041 39.2627 43.9323 39.1382 42.9358 38.7645C40.7561 37.8926 38.2028 35.962 35.7117 33.5955C33.3452 31.229 29.1726 30.0457 25 30.0457C20.8274 30.0457 16.6549 31.229 14.2261 33.4709C11.6727 35.8375 9.11934 37.8303 7.00192 38.64C6.00548 39.0136 5.1336 39.2004 4.44855 38.9513C3.82578 38.7645 3.32756 38.2663 2.9539 37.3944C2.45568 36.2111 2.20657 34.2806 2.33113 31.4158C2.45568 28.7379 2.89162 25.6863 3.63895 22.8215C4.324 20.1436 5.19588 17.6525 6.25459 15.7842C9.67983 9.61879 13.6656 10.6152 18.3986 11.8608C20.3292 12.359 22.3221 12.8572 24.5018 13.044C24.5641 13.044 24.5641 13.044 24.6264 13.044H25.3114C25.3737 13.044 25.3737 13.044 25.436 13.044C27.6779 12.8572 29.6708 12.359 31.6014 11.8608C36.3345 10.6775 40.3202 9.61879 43.7454 15.7842C44.8041 17.6525 45.676 20.0814 46.3611 22.8215C47.0461 25.6863 47.5443 28.6756 47.6689 31.4158C47.7935 34.2806 47.5443 36.2111 46.9838 37.519Z" fill="white"/>
</g>
<path d="M19.2705 19.1475C18.6477 18.587 17.9004 18.1511 17.0285 18.0888C16.9662 17.2792 16.5926 16.4696 16.0321 15.9091L15.9698 15.8468C15.2848 15.1617 14.4129 14.7881 13.4164 14.7881C12.42 14.7881 11.4859 15.224 10.8631 15.8468C10.3026 16.4073 9.86665 17.2169 9.80437 18.0888C8.93249 18.1511 8.18517 18.5247 7.5624 19.0852L7.50012 19.1475C6.81507 19.8325 6.44141 20.7044 6.44141 21.7009C6.44141 22.6973 6.87735 23.6314 7.50012 24.2542C8.12289 24.877 8.87022 25.2506 9.80437 25.3129C9.86665 26.1848 10.2403 26.9944 10.8631 27.5549C11.5481 28.24 12.42 28.6136 13.4164 28.6136C14.4129 28.6136 15.347 28.1777 15.9698 27.5549C16.5303 26.9321 16.9662 26.1848 17.0285 25.3129C17.9004 25.2506 18.71 24.877 19.2705 24.2542C19.9556 23.5692 20.3292 22.6973 20.3292 21.7009C20.3292 20.7044 19.8933 19.7703 19.2705 19.1475ZM17.7136 22.635C17.4645 22.8841 17.1531 23.0087 16.7794 23.0087H15.9075C15.2848 23.0087 14.7243 23.5069 14.7243 24.1919V25.0015C14.7243 25.3752 14.5997 25.6866 14.3506 25.9357C14.1015 26.1848 13.7901 26.3094 13.4164 26.3094C13.0428 26.3094 12.7314 26.1848 12.4823 25.9357C12.2332 25.6866 12.1086 25.3752 12.1086 25.0015V24.1297C12.1086 23.5069 11.6104 22.9464 10.9254 22.9464H10.0535C9.67982 22.9464 9.36843 22.8218 9.11932 22.5727C8.93249 22.3859 8.74566 22.0745 8.74566 21.7009C8.74566 21.3272 8.87022 21.0158 9.11932 20.7667C9.11932 20.7667 9.11932 20.7667 9.1816 20.7044C9.43071 20.5176 9.7421 20.393 10.0535 20.393H10.9254C11.5481 20.393 12.1086 19.8948 12.1086 19.2098V18.3379C12.1086 17.9642 12.2332 17.6528 12.4823 17.4037C12.7314 17.1546 13.0428 17.0301 13.4164 17.0301C13.7901 17.0301 14.1015 17.1546 14.3506 17.4037C14.3506 17.4037 14.3506 17.4037 14.4129 17.466C14.5997 17.7151 14.7243 18.0265 14.7243 18.3379V19.2098C14.7243 19.8325 15.2225 20.393 15.9075 20.393H16.7794C17.1531 20.393 17.4645 20.5176 17.7136 20.7667C17.9627 21.0158 18.0872 21.3272 18.0872 21.7009C18.0872 22.0745 17.9627 22.3859 17.7136 22.635Z" fill="white"/>
<path d="M35.8364 19.4585C37.0403 19.4585 38.0161 18.4826 38.0161 17.2788C38.0161 16.075 37.0403 15.0991 35.8364 15.0991C34.6326 15.0991 33.6567 16.075 33.6567 17.2788C33.6567 18.4826 34.6326 19.4585 35.8364 19.4585Z" fill="white"/>
<path d="M35.8364 28.3018C37.0403 28.3018 38.0161 27.3259 38.0161 26.1221C38.0161 24.9183 37.0403 23.9424 35.8364 23.9424C34.6326 23.9424 33.6567 24.9183 33.6567 26.1221C33.6567 27.3259 34.6326 28.3018 35.8364 28.3018Z" fill="white"/>
<path d="M31.4146 23.8804C32.6184 23.8804 33.5943 22.9045 33.5943 21.7007C33.5943 20.4969 32.6184 19.521 31.4146 19.521C30.2107 19.521 29.2349 20.4969 29.2349 21.7007C29.2349 22.9045 30.2107 23.8804 31.4146 23.8804Z" fill="white"/>
<path d="M40.2578 23.8804C41.4616 23.8804 42.4375 22.9045 42.4375 21.7007C42.4375 20.4969 41.4616 19.521 40.2578 19.521C39.054 19.521 38.0781 20.4969 38.0781 21.7007C38.0781 22.9045 39.054 23.8804 40.2578 23.8804Z" fill="white"/>
</g>
<defs>
<filter id="filter0_d" x="-4" y="8.58008" width="58" height="40.8396" filterUnits="userSpaceOnUse" color-interpolation-filters="sRGB">
<feFlood flood-opacity="0" result="BackgroundImageFix"/>
<feColorMatrix in="SourceAlpha" type="matrix" values="0 0 0 0 0 0 0 0 0 0 0 0 0 0 0 0 0 0 127 0" result="hardAlpha"/>
<feOffset dy="4"/>
<feGaussianBlur stdDeviation="2"/>
<feColorMatrix type="matrix" values="0 0 0 0 0 0 0 0 0 0 0 0 0 0 0 0 0 0 0.25 0"/>
<feBlend mode="normal" in2="BackgroundImageFix" result="effect1_dropShadow"/>
<feBlend mode="normal" in="SourceGraphic" in2="effect1_dropShadow" result="shape"/>
</filter>
<clipPath id="clip0">
<rect width="50" height="50" fill="white"/>
</clipPath>
</defs>
</svg>

<svg width="50" height="50" fill="none" xmlns="http://www.w3.org/2000/svg"><g clip-path="url(#clip0)"><g filter="url(#filter0_d)"><path d="M49.973 31.291c-.124-2.864-.623-6.04-1.37-9.03-.747-2.865-1.681-5.543-2.802-7.598-4.36-7.66-9.093-6.477-14.76-4.982-1.806.436-3.737.934-5.73 1.121h-.622c-1.993-.187-3.924-.685-5.73-1.12-5.667-1.433-10.4-2.679-14.76 5.043-1.12 2.056-2.117 4.734-2.802 7.598-.747 2.99-1.246 6.166-1.37 9.03-.125 3.177.187 5.48.872 7.1.685 1.495 1.681 2.429 2.99 2.803 1.182.311 2.552.186 3.985-.436 2.429-.997 5.231-3.114 7.971-5.668 1.93-1.868 5.543-2.802 9.155-2.802 3.612 0 7.224.934 9.155 2.802 2.74 2.554 5.542 4.671 7.971 5.668 1.433.56 2.803.747 3.986.436 1.245-.374 2.304-1.246 2.99-2.865.684-1.557.996-3.861.871-7.1zm-2.99 6.228c-.373.872-.871 1.37-1.494 1.557-.685.187-1.557.062-2.553-.312-2.18-.871-4.733-2.802-7.224-5.169-2.367-2.366-6.54-3.55-10.712-3.55-4.173 0-8.345 1.184-10.774 3.426-2.553 2.367-5.107 4.36-7.224 5.169-.997.374-1.868.56-2.553.311-.623-.187-1.121-.685-1.495-1.557-.498-1.183-.747-3.113-.623-5.978.125-2.678.56-5.73 1.308-8.595.685-2.677 1.557-5.169 2.616-7.037 3.425-6.165 7.41-5.169 12.144-3.923 1.93.498 3.923.996 6.103 1.183h.934c2.242-.187 4.235-.685 6.165-1.183 4.733-1.184 8.72-2.242 12.144 3.923 1.06 1.868 1.931 4.297 2.616 7.037.685 2.865 1.183 5.855 1.308 8.595.125 2.865-.125 4.795-.685 6.103z" fill="#fff"/></g><path d="M19.27 19.148c-.622-.561-1.37-.997-2.241-1.06a3.544 3.544 0 00-.997-2.179l-.062-.062a3.527 3.527 0 00-2.554-1.059c-.996 0-1.93.436-2.553 1.059-.56.56-.996 1.37-1.059 2.242-.872.062-1.619.436-2.242.996l-.062.063A3.527 3.527 0 006.441 21.7c0 .996.436 1.93 1.06 2.553.622.623 1.37.997 2.303 1.059.063.872.436 1.681 1.06 2.242a3.527 3.527 0 002.552 1.059c.997 0 1.931-.436 2.554-1.06.56-.622.996-1.37 1.059-2.241.871-.062 1.681-.436 2.241-1.059a3.527 3.527 0 001.06-2.553c0-.997-.437-1.93-1.06-2.553zm-1.556 3.487c-.25.25-.56.374-.935.374h-.871c-.623 0-1.184.498-1.184 1.183v.81c0 .373-.124.685-.373.934-.25.249-.56.373-.935.373-.373 0-.685-.124-.934-.373-.249-.25-.373-.56-.373-.934v-.872c0-.623-.499-1.184-1.184-1.184h-.872c-.373 0-.685-.124-.934-.373a1.262 1.262 0 01-.373-.872c0-.374.124-.685.373-.934l.063-.063c.249-.186.56-.311.871-.311h.872c.623 0 1.184-.498 1.184-1.183v-.872c0-.374.124-.685.373-.934.25-.25.56-.374.934-.374s.685.125.935.374l.062.062c.187.25.311.56.311.872v.872c0 .622.498 1.183 1.184 1.183h.871c.374 0 .686.125.935.374s.373.56.373.934c0 .373-.124.685-.373.934zM35.836 19.459a2.18 2.18 0 100-4.36 2.18 2.18 0 000 4.36zM35.836 28.302a2.18 2.18 0 100-4.36 2.18 2.18 0 000 4.36zM31.415 23.88a2.18 2.18 0 100-4.359 2.18 2.18 0 000 4.36zM40.258 23.88a2.18 2.18 0 100-4.359 2.18 2.18 0 000 4.36z" fill="#fff"/></g><defs><clipPath id="clip0"><path fill="#fff" d="M0 0h50v50H0z"/></clipPath><filter id="filter0_d" x="-4" y="8.58" width="58" height="40.84" filterUnits="userSpaceOnUse" color-interpolation-filters="sRGB"><feFlood flood-opacity="0" result="BackgroundImageFix"/><feColorMatrix in="SourceAlpha" values="0 0 0 0 0 0 0 0 0 0 0 0 0 0 0 0 0 0 127 0" result="hardAlpha"/><feOffset dy="4"/><feGaussianBlur stdDeviation="2"/><feColorMatrix values="0 0 0 0 0 0 0 0 0 0 0 0 0 0 0 0 0 0 0.25 0"/><feBlend in2="BackgroundImageFix" result="effect1_dropShadow"/><feBlend in="SourceGraphic" in2="effect1_dropShadow" result="shape"/></filter></defs></svg>
